X:0617
M:C|
L:1/8
Q:1/2=104
K:G
   DG`BG   AGBG  | DGBG    A>GEc | BAGF     GFED   | EFGA      BGG  ||
g|(dg)bg (Tag)bg |(dg)bg (Tag)eg |(dg)bg  (Tag)bg  | d>edc     B(GG)g|
  (dg)bg (Tag)bg |(dg)bg  (ag)ea |(ba).g.f (gf).e.d| efga      bgg  |]

